X:1
T:Carroll of Bryngyng in the Bore’s Head
T:Carroll of Bryngyng in the Bore’s Head
T:Old Oxford Carol
T:“Christmasse Carolles,” Wynkyn de Worde, 1521
T:Public Domain Courtesy of the Cyber Hymnal™
C:Old Oxford Carol
Z:Public Domain
Z:Courtesy of the Cyber Hymnal™
%%score ( 1 2 ) ( 3 4 )
L:1/8
M:2/2
K:C
V:1 treble 
V:2 treble 
V:3 bass 
V:4 bass 
V:1
"^Chorus" [Ec]6 [Ec]2 | [DB]4 [DB]4 | [Ec]4 [Cc]4 | [B,DG]8 | [CF]4 [CF]4 | [CA]6 [CF]2 | %6
w: ~ ~|~ ~|~ ~|~|~ ~|~ ~|
w: Ca- put|a- pri|de- fe-|ro,|Red- dens|lau- des|
w: ~ ~|~ ~|~ ~|~|~ ~|~ ~|
 G6 [FG]2 | !fermata![Ec]4"^Solo or Quartet" [EG]4 | z4 x8 | ([Ec]4 [Ec]2) [Ec]2 | [FB]4 [Ec]4 | %11
w: ~ ~|* ~||The * Bore’s|Heed in|
w: Dom- i-|* no!||The * Bore’s|Heed,~as I|
w: ~ ~|* ~||Our * stewarde|hath pro-|
 [DG]6"^Full" [CE]2 | [CF]4 [CF]4 | [CA]6 [CF]2 | G6 z2 G2 | %15
w: hande bryng|I With|gar- lans|gay *|
w: un- der-|stande Is|the chefe|ser- *|
w: vid- ed|this, In|hon- our|of *|
 !fermata![CEc]4"^Solo or Quartet" G2 G2 | [Ec]4 [Ec]4 | [Ec]4 ([Ec]2 [Ec]2) | [FB]4 [Ec]4 | %19
w: * and ros-|ma- ry.|And I *|pray you|
w: * vyce in|this lande;|… … *|Loke, wher-|
w: * the King|of Bliss;|Which on *|this day|
 [DG]6"^Full" [CE]2 | [CF]4 [CF]4 | ([CA]6 [CF]2) | G6 z2 G2 | !fermata![CEc]8 |] %24
w: all sing|mer- e-|ly. *|Qui es-|tis|
w: ev- er|it be|fande… *|Ser- vi-|te|
w: to be|serv- èd|is, *|In Reg-|i-|
V:2
 x8 | x8 | x8 | x8 | x8 | x8 | (B,2 D2) G2 x2 | x8 | [Ec]8 c4 | x8 | x8 | x8 | x8 | x8 | %14
 [CD-]4 [B,D]4 x2 | x4 G2 G2 | x8 | x8 | x8 | x8 | x8 | x8 | [CD-]4 [B,D]4 x2 | x8 |] %24
V:3
 C,6 C,2 | G,,4 G,,4 | C,4 E,4 | G,8 | A,4 A,4 | F,6 A,2 | G,6 [G,B,]2 | %7
 !fermata![C,G,C]4 [C,G,]4 | [C,G,]8 x4 | ([C,G,]4 [C,G,]2) [C,G,]2 | [D,G,]4 [C,G,]4 | %11
 [B,,G,]6 [_B,,G,]2 | [A,,F,]4 [A,,F,]4 | [F,,F,]6 [A,,F,]2 | [G,,D,]4 G,4 x2 | %15
 !fermata![C,G,]4 G,2 G,2 | [C,G,]4 [C,G,]4 | ([C,G,]4 [C,G,]2) [C,G,]2 | [D,G,]4 [D,G,]4 | %19
 [B,,G,]6 [_B,,G,]2 | [A,,F,]4 [A,,F,]4 | [F,,F,]6 [A,,F,]2 | [G,,D,]4 G,4 x2 | !fermata![C,G,]8 |] %24
V:4
 x8 | x8 | x8 | x8 | x8 | x8 | x8 | x8 | x12 | x8 | x8 | x8 | x8 | x8 | x4 G,4 x2 | x4 G,2 G,2 | %16
 x8 | x8 | x8 | x8 | x8 | x8 | x4 G,4 x2 | x8 |] %24

